; generated by PrusaSlicer 2.5.1+win64 on 2023-05-27 at 15:27:36 UTC


;
;
; 

; external perimeters extrusion width = 0.45mm
; perimeters extrusion width = 0.45mm
; infill extrusion width = 0.45mm
; solid infill extrusion width = 0.45mm
; top infill extrusion width = 0.40mm
; first layer extrusion width = 0.42mm

M73 P0 R272
M73 Q0 S273
M201 X1000 Y1000 Z200 E5000 ; sets maximum accelerations, mm/sec^2
M203 X200 Y200 Z12 E120 ; sets maximum feedrates, mm / sec
M204 P1250 R1250 T1250 ; sets acceleration (P, T) and retract acceleration (R), mm/sec^2
M205 X8.00 Y8.00 Z0.40 E4.50 ; sets the jerk limits, mm/sec
M205 S0 T0 ; sets the minimum extruding and travel feed rate, mm/sec
M107
;TYPE:Custom
M862.3 P "MK3S" ; printer model check
M862.1 P0.4 ; nozzle diameter check
M115 U3.12.1 ; tell printer latest fw version
G90 ; use absolute coordinates
M83 ; extruder relative mode
M104 S215 ; set extruder temp
M140 S60 ; set bed temp
M190 S60 ; wait for bed temp
M109 S215 ; wait for extruder temp
G28 W ; home all without mesh bed level
G80 ; mesh bed leveling

G1 Z0.2 F720
G1 Y-3 F1000 ; go outside print area
G92 E0
G1 X60 E9 F1000 ; intro line
G1 X100 E12.5 F1000 ; intro line

G92 E0
M221 S95

; Don't change E values below. Excessive value can damage the printer.

M907 E538 ; set extruder motor current
G21 ; set units to millimeters
G90 ; use absolute coordinates
M83 ; use relative distances for extrusion
M900 K0.05 ; Filament gcode LA 1.5
M900 K30 ; Filament gcode LA 1.0
M107
;LAYER_CHANGE
;Z:0.2
;HEIGHT:0.2
;BEFORE_LAYER_CHANGE
G92 E0.0
;0.2


G1 E-.8 F2100
G1 Z.4 F720
;AFTER_LAYER_CHANGE
;0.2
G1 X64.56 Y78.317 F10800
G1 Z.2 F720
G1 E.8 F2100
M204 S800
;TYPE:Skirt/Brim
;WIDTH:0.42
G1 F1200
G1 X65.5 Y78.123 E.03008
G1 X184.5 Y78.123 E3.73116
G1 X185.807 Y78.515 E.04278
G1 X186.683 Y79.56 E.04278
G1 X186.877 Y80.5 E.03008
G1 X186.877 Y129.5 E1.53636
G1 X186.485 Y130.807 E.04278
M73 P0 R271
G1 X185.44 Y131.683 E.04278
G1 X184.5 Y131.877 E.03008
G1 X65.5 Y131.877 E3.73116
G1 X64.193 Y131.485 E.04278
G1 X63.317 Y130.44 E.04278
G1 X63.123 Y129.5 E.03008
G1 X63.123 Y80.5 E1.53636
G1 X63.515 Y79.193 E.04278
G1 X64.514 Y78.355 E.0409
M204 S1000
; printing object arduinobox id:0 copy 0
;WIPE_START
G1 F8640
G1 X65.5 Y78.123 E-.23384
G1 X67.779 Y78.123 E-.52616
;WIPE_END
G1 E-.04 F2100
G1 Z.6 F720
G1 X66.287 Y81.287 F10800
G1 Z.2 F720
G1 E.8 F2100
M204 S800
;TYPE:Perimeter
;WIDTH:0.419999
G1 F1200
G1 X183.713 Y81.287 E3.6818
G1 X183.713 Y128.713 E1.487
G1 X66.287 Y128.713 E3.6818
G1 X66.287 Y81.347 E1.48512
M204 S1000
G1 X65.91 Y80.91 F10800
M204 S800
;TYPE:External perimeter
G1 F1200
G1 X184.09 Y80.91 E3.70544
G1 X184.09 Y129.09 E1.51065
M73 Q0 S272
G1 X65.91 Y129.09 E3.70544
G1 X65.91 Y80.97 E1.50877
M204 S1000
G1 X66.307 Y80.961 F10800
;WIPE_START
G1 F8640
G1 X69.201 Y80.968 E-.76
;WIPE_END
G1 E-.04 F2100
G1 Z.6 F720
G1 X182.781 Y81.457 F10800
G1 Z.2 F720
G1 E.8 F2100
M204 S800
;TYPE:Solid infill
;WIDTH:0.420001
G1 F1200
G1 X183.374 Y82.049 E.02628
G1 X183.374 Y82.583 E.01672
G1 X182.417 Y81.626 E.0424
G1 X181.884 Y81.626 E.01672
G1 X183.374 Y83.116 E.06604
G1 X183.374 Y83.649 E.01672
G1 X181.351 Y81.626 E.08969
G1 X180.818 Y81.626 E.01672
G1 X183.374 Y84.182 E.11334
G1 X183.374 Y84.716 E.01672
G1 X180.284 Y81.626 E.13698
G1 X179.751 Y81.626 E.01672
G1 X183.374 Y85.249 E.16063
G1 X183.374 Y85.782 E.01672
G1 X179.218 Y81.626 E.18428
G1 X178.684 Y81.626 E.01672
G1 X183.374 Y86.316 E.20792
G1 X183.374 Y86.849 E.01672
G1 X178.151 Y81.626 E.23157
G1 X177.618 Y81.626 E.01672
G1 X183.374 Y87.382 E.25522
G1 X183.374 Y87.915 E.01672
G1 X177.085 Y81.626 E.27886
G1 X176.551 Y81.626 E.01672
G1 X183.374 Y88.449 E.30251
G1 X183.374 Y88.982 E.01672
G1 X176.018 Y81.626 E.32615
G1 X175.485 Y81.626 E.01672
G1 X183.374 Y89.515 E.3498
G1 X183.374 Y90.048 E.01672
G1 X174.952 Y81.626 E.37345
G1 X174.418 Y81.626 E.01672
G1 X183.374 Y90.582 E.39709
G1 X183.374 Y91.115 E.01672
G1 X173.885 Y81.626 E.42074
G1 X173.352 Y81.626 E.01672
G1 X183.374 Y91.648 E.44439
G1 X183.374 Y92.182 E.01672
G1 X172.818 Y81.626 E.46803
G1 X172.285 Y81.626 E.01672
G1 X183.374 Y92.715 E.49168
G1 X183.374 Y93.248 E.01672
G1 X171.752 Y81.626 E.51532
G1 X171.219 Y81.626 E.01672
G1 X183.374 Y93.781 E.53897
G1 X183.374 Y94.315 E.01672
G1 X170.685 Y81.626 E.56262
G1 X170.152 Y81.626 E.01672
G1 X183.374 Y94.848 E.58626
G1 X183.374 Y95.381 E.01672
G1 X169.619 Y81.626 E.60991
G1 X169.086 Y81.626 E.01672
G1 X183.374 Y95.914 E.63356
G1 X183.374 Y96.448 E.01672
M73 P0 R270
G1 X168.552 Y81.626 E.6572
G1 X168.019 Y81.626 E.01672
G1 X183.374 Y96.981 E.68085
G1 X183.374 Y97.514 E.01672
G1 X167.486 Y81.626 E.7045
G1 X166.952 Y81.626 E.01672
G1 X183.374 Y98.048 E.72814
G1 X183.374 Y98.581 E.01672
G1 X166.419 Y81.626 E.75179
G1 X165.886 Y81.626 E.01672
G1 X183.374 Y99.114 E.77543
G1 X183.374 Y99.647 E.01672
G1 X165.353 Y81.626 E.79908
G1 X164.819 Y81.626 E.01672
G1 X183.374 Y100.181 E.82273
G1 X183.374 Y100.714 E.01672
G1 X164.286 Y81.626 E.84637
G1 X163.753 Y81.626 E.01672
G1 X183.374 Y101.247 E.87002
G1 X183.374 Y101.78 E.01672
G1 X163.22 Y81.626 E.89367
G1 X162.686 Y81.626 E.01672
G1 X183.374 Y102.314 E.91731
G1 X183.374 Y102.847 E.01672
G1 X162.153 Y81.626 E.94096
G1 X161.62 Y81.626 E.01672
G1 X183.374 Y103.38 E.9646
G1 X183.374 Y103.914 E.01672
G1 X161.086 Y81.626 E.98825
G1 X160.553 Y81.626 E.01672
G1 X183.374 Y104.447 E1.0119
G1 X183.374 Y104.98 E.01672
G1 X160.02 Y81.626 E1.03554
G1 X159.487 Y81.626 E.01672
G1 X183.374 Y105.513 E1.05919
G1 X183.374 Y106.047 E.01672
G1 X158.953 Y81.626 E1.08284
G1 X158.42 Y81.626 E.01672
G1 X183.374 Y106.58 E1.10648
G1 X183.374 Y107.113 E.01672
G1 X157.887 Y81.626 E1.13013
G1 X157.354 Y81.626 E.01672
M73 Q0 S271
G1 X183.374 Y107.646 E1.15378
G1 X183.374 Y108.18 E.01672
G1 X156.82 Y81.626 E1.17742
G1 X156.287 Y81.626 E.01672
G1 X183.374 Y108.713 E1.20107
G1 X183.374 Y109.246 E.01672
G1 X155.754 Y81.626 E1.22471
G1 X155.22 Y81.626 E.01672
G1 X183.374 Y109.78 E1.24836
G1 X183.374 Y110.313 E.01672
G1 X154.687 Y81.626 E1.27201
G1 X154.154 Y81.626 E.01672
G1 X183.374 Y110.846 E1.29565
G1 X183.374 Y111.379 E.01672
G1 X153.621 Y81.626 E1.3193
G1 X153.087 Y81.626 E.01672
G1 X183.374 Y111.913 E1.34295
G1 X183.374 Y112.446 E.01672
G1 X152.554 Y81.626 E1.36659
G1 X152.021 Y81.626 E.01672
G1 X183.374 Y112.979 E1.39024
G1 X183.374 Y113.512 E.01672
G1 X151.488 Y81.626 E1.41388
G1 X150.954 Y81.626 E.01672
G1 X183.374 Y114.046 E1.43753
G1 X183.374 Y114.579 E.01672
G1 X150.421 Y81.626 E1.46118
G1 X149.888 Y81.626 E.01672
M73 P0 R269
G1 X183.374 Y115.112 E1.48482
G1 X183.374 Y115.646 E.01672
G1 X149.354 Y81.626 E1.50847
G1 X148.821 Y81.626 E.01672
G1 X183.374 Y116.179 E1.53212
G1 X183.374 Y116.712 E.01672
G1 X148.288 Y81.626 E1.55576
G1 X147.755 Y81.626 E.01672
G1 X183.374 Y117.245 E1.57941
G1 X183.374 Y117.779 E.01672
G1 X147.221 Y81.626 E1.60305
G1 X146.688 Y81.626 E.01672
G1 X183.374 Y118.312 E1.6267
G1 X183.374 Y118.845 E.01672
G1 X146.155 Y81.626 E1.65035
G1 X145.622 Y81.626 E.01672
G1 X183.374 Y119.378 E1.67399
G1 X183.374 Y119.912 E.01672
G1 X145.088 Y81.626 E1.69764
G1 X144.555 Y81.626 E.01672
G1 X183.374 Y120.445 E1.72129
G1 X183.374 Y120.978 E.01672
M73 P1 R269
M73 Q1 S271
G1 X144.022 Y81.626 E1.74493
G1 X143.488 Y81.626 E.01672
M73 Q1 S270
G1 X183.374 Y121.512 E1.76858
G1 X183.374 Y122.045 E.01672
G1 X142.955 Y81.626 E1.79223
G1 X142.422 Y81.626 E.01672
G1 X183.374 Y122.578 E1.81587
G1 X183.374 Y123.111 E.01672
G1 X141.889 Y81.626 E1.83952
G1 X141.355 Y81.626 E.01672
G1 X183.374 Y123.645 E1.86316
G1 X183.374 Y124.178 E.01672
G1 X140.822 Y81.626 E1.88681
G1 X140.289 Y81.626 E.01672
G1 X183.374 Y124.711 E1.91046
G1 X183.374 Y125.244 E.01672
G1 X139.756 Y81.626 E1.9341
G1 X139.222 Y81.626 E.01672
G1 X183.374 Y125.778 E1.95775
G1 X183.374 Y126.311 E.01672
G1 X138.689 Y81.626 E1.9814
G1 X138.156 Y81.626 E.01672
M73 P1 R268
G1 X183.374 Y126.844 E2.00504
G1 X183.374 Y127.378 E.01672
G1 X137.622 Y81.626 E2.02869
G1 X137.089 Y81.626 E.01672
G1 X183.374 Y127.911 E2.05233
G1 X183.374 Y128.374 E.01451
G1 X183.303 Y128.374 E.00221
G1 X136.556 Y81.626 E2.07285
G1 X136.023 Y81.626 E.01672
G1 X182.77 Y128.374 E2.07285
G1 X182.236 Y128.374 E.01672
G1 X135.489 Y81.626 E2.07285
G1 X134.956 Y81.626 E.01672
G1 X181.703 Y128.374 E2.07285
G1 X181.17 Y128.374 E.01672
G1 X134.423 Y81.626 E2.07285
G1 X133.89 Y81.626 E.01672
G1 X180.637 Y128.374 E2.07285
G1 X180.103 Y128.374 E.01672
M73 Q1 S269
G1 X133.356 Y81.626 E2.07285
G1 X132.823 Y81.626 E.01672
G1 X179.57 Y128.374 E2.07285
G1 X179.037 Y128.374 E.01672
G1 X132.29 Y81.626 E2.07285
G1 X131.756 Y81.626 E.01672
G1 X178.504 Y128.374 E2.07285
G1 X177.97 Y128.374 E.01672
G1 X131.223 Y81.626 E2.07285
G1 X130.69 Y81.626 E.01672
G1 X177.437 Y128.374 E2.07285
G1 X176.904 Y128.374 E.01672
G1 X130.157 Y81.626 E2.07285
G1 X129.623 Y81.626 E.01672
G1 X176.37 Y128.374 E2.07285
G1 X175.837 Y128.374 E.01672
G1 X129.09 Y81.626 E2.07285
G1 X128.557 Y81.626 E.01672
M73 P1 R267
G1 X175.304 Y128.374 E2.07285
G1 X174.771 Y128.374 E.01672
G1 X128.024 Y81.626 E2.07285
G1 X127.49 Y81.626 E.01672
G1 X174.237 Y128.374 E2.07285
G1 X173.704 Y128.374 E.01672
G1 X126.957 Y81.626 E2.07285
G1 X126.424 Y81.626 E.01672
G1 X173.171 Y128.374 E2.07285
G1 X172.638 Y128.374 E.01672
G1 X125.89 Y81.626 E2.07285
G1 X125.357 Y81.626 E.01672
G1 X172.104 Y128.374 E2.07285
G1 X171.571 Y128.374 E.01672
G1 X124.824 Y81.626 E2.07285
G1 X124.291 Y81.626 E.01672
G1 X171.038 Y128.374 E2.07285
G1 X170.504 Y128.374 E.01672
M73 Q1 S268
G1 X123.757 Y81.626 E2.07285
G1 X123.224 Y81.626 E.01672
G1 X169.971 Y128.374 E2.07285
G1 X169.438 Y128.374 E.01672
G1 X122.691 Y81.626 E2.07285
G1 X122.158 Y81.626 E.01672
G1 X168.905 Y128.374 E2.07285
G1 X168.371 Y128.374 E.01672
G1 X121.624 Y81.626 E2.07285
G1 X121.091 Y81.626 E.01672
G1 X167.838 Y128.374 E2.07285
G1 X167.305 Y128.374 E.01672
G1 X120.558 Y81.626 E2.07285
G1 X120.024 Y81.626 E.01672
G1 X166.772 Y128.374 E2.07285
G1 X166.238 Y128.374 E.01672
G1 X119.491 Y81.626 E2.07285
G1 X118.958 Y81.626 E.01672
M73 P1 R266
G1 X165.705 Y128.374 E2.07285
G1 X165.172 Y128.374 E.01672
G1 X118.425 Y81.626 E2.07285
G1 X117.891 Y81.626 E.01672
G1 X164.638 Y128.374 E2.07285
G1 X164.105 Y128.374 E.01672
M73 P2 R266
G1 X117.358 Y81.626 E2.07285
G1 X116.825 Y81.626 E.01672
M73 Q2 S268
G1 X163.572 Y128.374 E2.07285
G1 X163.039 Y128.374 E.01672
G1 X116.292 Y81.626 E2.07285
G1 X115.758 Y81.626 E.01672
G1 X162.505 Y128.374 E2.07285
G1 X161.972 Y128.374 E.01672
G1 X115.225 Y81.626 E2.07285
G1 X114.692 Y81.626 E.01672
G1 X161.439 Y128.374 E2.07285
G1 X160.906 Y128.374 E.01672
M73 Q2 S267
G1 X114.158 Y81.626 E2.07285
G1 X113.625 Y81.626 E.01672
G1 X160.372 Y128.374 E2.07285
G1 X159.839 Y128.374 E.01672
G1 X113.092 Y81.626 E2.07285
G1 X112.559 Y81.626 E.01672
G1 X159.306 Y128.374 E2.07285
G1 X158.772 Y128.374 E.01672
G1 X112.025 Y81.626 E2.07285
G1 X111.492 Y81.626 E.01672
G1 X158.239 Y128.374 E2.07285
G1 X157.706 Y128.374 E.01672
G1 X110.959 Y81.626 E2.07285
G1 X110.426 Y81.626 E.01672
G1 X157.173 Y128.374 E2.07285
G1 X156.639 Y128.374 E.01672
G1 X109.892 Y81.626 E2.07285
G1 X109.359 Y81.626 E.01672
M73 P2 R265
G1 X156.106 Y128.374 E2.07285
G1 X155.573 Y128.374 E.01672
G1 X108.826 Y81.626 E2.07285
G1 X108.292 Y81.626 E.01672
G1 X155.04 Y128.374 E2.07285
G1 X154.506 Y128.374 E.01672
G1 X107.759 Y81.626 E2.07285
G1 X107.226 Y81.626 E.01672
G1 X153.973 Y128.374 E2.07285
G1 X153.44 Y128.374 E.01672
G1 X106.693 Y81.626 E2.07285
G1 X106.159 Y81.626 E.01672
G1 X152.906 Y128.374 E2.07285
G1 X152.373 Y128.374 E.01672
G1 X105.626 Y81.626 E2.07285
G1 X105.093 Y81.626 E.01672
G1 X151.84 Y128.374 E2.07285
G1 X151.307 Y128.374 E.01672
M73 Q2 S266
G1 X104.56 Y81.626 E2.07285
G1 X104.026 Y81.626 E.01672
G1 X150.773 Y128.374 E2.07285
G1 X150.24 Y128.374 E.01672
G1 X103.493 Y81.626 E2.07285
G1 X102.96 Y81.626 E.01672
G1 X149.707 Y128.374 E2.07285
G1 X149.174 Y128.374 E.01672
G1 X102.426 Y81.626 E2.07285
G1 X101.893 Y81.626 E.01672
G1 X148.64 Y128.374 E2.07285
G1 X148.107 Y128.374 E.01672
G1 X101.36 Y81.626 E2.07285
G1 X100.827 Y81.626 E.01672
G1 X147.574 Y128.374 E2.07285
G1 X147.04 Y128.374 E.01672
G1 X100.293 Y81.626 E2.07285
G1 X99.76 Y81.626 E.01672
M73 P2 R264
G1 X146.507 Y128.374 E2.07285
G1 X145.974 Y128.374 E.01672
G1 X99.227 Y81.626 E2.07285
G1 X98.694 Y81.626 E.01672
G1 X145.441 Y128.374 E2.07285
G1 X144.907 Y128.374 E.01672
G1 X98.16 Y81.626 E2.07285
G1 X97.627 Y81.626 E.01672
G1 X144.374 Y128.374 E2.07285
G1 X143.841 Y128.374 E.01672
G1 X97.094 Y81.626 E2.07285
G1 X96.56 Y81.626 E.01672
G1 X143.308 Y128.374 E2.07285
G1 X142.774 Y128.374 E.01672
G1 X96.027 Y81.626 E2.07285
G1 X95.494 Y81.626 E.01672
G1 X142.241 Y128.374 E2.07285
G1 X141.708 Y128.374 E.01672
M73 Q2 S265
G1 X94.961 Y81.626 E2.07285
G1 X94.427 Y81.626 E.01672
G1 X141.174 Y128.374 E2.07285
G1 X140.641 Y128.374 E.01672
G1 X93.894 Y81.626 E2.07285
G1 X93.361 Y81.626 E.01672
G1 X140.108 Y128.374 E2.07285
G1 X139.575 Y128.374 E.01672
G1 X92.828 Y81.626 E2.07285
G1 X92.294 Y81.626 E.01672
G1 X139.041 Y128.374 E2.07285
G1 X138.508 Y128.374 E.01672
G1 X91.761 Y81.626 E2.07285
G1 X91.228 Y81.626 E.01672
M73 P3 R264
G1 X137.975 Y128.374 E2.07285
G1 X137.442 Y128.374 E.01672
M73 Q3 S265
G1 X90.694 Y81.626 E2.07285
M73 P3 R263
G1 X90.161 Y81.626 E.01672
G1 X136.908 Y128.374 E2.07285
G1 X136.375 Y128.374 E.01672
G1 X89.628 Y81.626 E2.07285
G1 X89.095 Y81.626 E.01672
G1 X135.842 Y128.374 E2.07285
G1 X135.308 Y128.374 E.01672
G1 X88.561 Y81.626 E2.07285
G1 X88.028 Y81.626 E.01672
G1 X134.775 Y128.374 E2.07285
G1 X134.242 Y128.374 E.01672
G1 X87.495 Y81.626 E2.07285
G1 X86.962 Y81.626 E.01672
G1 X133.709 Y128.374 E2.07285
G1 X133.175 Y128.374 E.01672
G1 X86.428 Y81.626 E2.07285
G1 X85.895 Y81.626 E.01672
G1 X132.642 Y128.374 E2.07285
G1 X132.109 Y128.374 E.01672
M73 Q3 S264
G1 X85.362 Y81.626 E2.07285
G1 X84.828 Y81.626 E.01672
G1 X131.576 Y128.374 E2.07285
G1 X131.042 Y128.374 E.01672
G1 X84.295 Y81.626 E2.07285
G1 X83.762 Y81.626 E.01672
G1 X130.509 Y128.374 E2.07285
G1 X129.976 Y128.374 E.01672
G1 X83.229 Y81.626 E2.07285
G1 X82.695 Y81.626 E.01672
G1 X129.442 Y128.374 E2.07285
G1 X128.909 Y128.374 E.01672
G1 X82.162 Y81.626 E2.07285
G1 X81.629 Y81.626 E.01672
G1 X128.376 Y128.374 E2.07285
G1 X127.843 Y128.374 E.01672
M73 P3 R262
G1 X81.096 Y81.626 E2.07285
G1 X80.562 Y81.626 E.01672
G1 X127.309 Y128.374 E2.07285
G1 X126.776 Y128.374 E.01672
G1 X80.029 Y81.626 E2.07285
G1 X79.496 Y81.626 E.01672
G1 X126.243 Y128.374 E2.07285
G1 X125.71 Y128.374 E.01672
G1 X78.962 Y81.626 E2.07285
G1 X78.429 Y81.626 E.01672
G1 X125.176 Y128.374 E2.07285
G1 X124.643 Y128.374 E.01672
G1 X77.896 Y81.626 E2.07285
G1 X77.363 Y81.626 E.01672
G1 X124.11 Y128.374 E2.07285
G1 X123.576 Y128.374 E.01672
G1 X76.829 Y81.626 E2.07285
G1 X76.296 Y81.626 E.01672
G1 X123.043 Y128.374 E2.07285
G1 X122.51 Y128.374 E.01672
M73 Q3 S263
G1 X75.763 Y81.626 E2.07285
G1 X75.23 Y81.626 E.01672
G1 X121.977 Y128.374 E2.07285
G1 X121.443 Y128.374 E.01672
G1 X74.696 Y81.626 E2.07285
G1 X74.163 Y81.626 E.01672
G1 X120.91 Y128.374 E2.07285
G1 X120.377 Y128.374 E.01672
G1 X73.63 Y81.626 E2.07285
G1 X73.096 Y81.626 E.01672
G1 X119.844 Y128.374 E2.07285
G1 X119.31 Y128.374 E.01672
G1 X72.563 Y81.626 E2.07285
G1 X72.03 Y81.626 E.01672
G1 X118.777 Y128.374 E2.07285
G1 X118.244 Y128.374 E.01672
M73 P3 R261
G1 X71.497 Y81.626 E2.07285
G1 X70.963 Y81.626 E.01672
G1 X117.71 Y128.374 E2.07285
G1 X117.177 Y128.374 E.01672
G1 X70.43 Y81.626 E2.07285
G1 X69.897 Y81.626 E.01672
G1 X116.644 Y128.374 E2.07285
G1 X116.111 Y128.374 E.01672
G1 X69.363 Y81.626 E2.07285
G1 X68.83 Y81.626 E.01672
G1 X115.577 Y128.374 E2.07285
G1 X115.044 Y128.374 E.01672
G1 X68.297 Y81.626 E2.07285
G1 X67.764 Y81.626 E.01672
G1 X114.511 Y128.374 E2.07285
G1 X113.978 Y128.374 E.01672
G1 X67.23 Y81.626 E2.07285
G1 X66.697 Y81.626 E.01672
M73 Q3 S262
G1 X113.444 Y128.374 E2.07285
G1 X112.911 Y128.374 E.01672
G1 X66.626 Y82.089 E2.05234
G1 X66.626 Y82.622 E.01672
G1 X112.378 Y128.374 E2.0287
G1 X111.844 Y128.374 E.01672
M73 P4 R261
G1 X66.626 Y83.156 E2.00505
G1 X66.626 Y83.689 E.01672
M73 Q4 S262
